X:149
T:Galatea. THO5.149, La
M:6/8
L:1/8
B:Thompson's Complete Collection of 200 Favourite Dances Vol.5
F:https://www.libraryofdance.org/manuals/1780c-Thompson-Compleat-5.pdf
Z:vmp. Peter Dunk 2024
Q:3/8=100
K:E
!f!e2e ege|B2b bge|c2a afd|ege Bcd|
e2e ege|B2b bge|c2a afd|e3-e3:|
!p!B.G.G .A.F.F|Eee dff|egg gfe|daf dfd|
.B.G.G .A.F.F|Eee dff|egg gfe|bfd B3|
!f!e2e ege|B2b bge|c2a afd|ege Bcd|
e2e ege|B2b bge|c2a afd|e3 E3||
W:
W:Turn your Partner half round with the right Hand, back again with the Left ./.
W:Lead down the middle, up again and cast off ./:
W:Allemand with your Partner :/.
W:right and left at top :/:

